X:1
T:Title
%%score ( 1 2 ) { 3 | 4 }
L:1/8
Q:1/4=94
M:3/4
K:D
V:1 treble nm="Grand Piano, Soprano"
V:2 treble 
V:3 bass nm="Choir Pad, Kabul, Main"
V:4 bass 
V:1
 D>[DE] [DF]3 [EG] | [FA]>[Fd] [Gd]2 [GB]2 | [EA]>[CE] [CE]3 [CB] | [DA][EG] [DF]4 | %4
w: By~Hubert~Platt~Main,~1884 * * *||||
 D>[DE] [DF]3 [EG] | [FA]>[Fd] [Gd]2 [DB]2 | [DA][DG] [DF]3 [DA] | [CE][CF] D4 | %8
w: ||||
 [CE][CF] [EG]3 [FA] | [GB][Ec] [Fd]2 [FA]2 | [EA][EB] [Ec]3 [Fd] | [DB][Ec] z2 G2 | %12
w: ||||
 [DF][EG] [FA]2 [Fd]2 | [Ge][Fd] [Ac]2 [GB]2 | [DA][DG] [DF]2 [DA]2 | [CE][CF] D4- | D4 z2 |] %17
w: |||||
V:2
 x6 | x6 | x6 | x6 | x6 | x6 | x6 | x6 | x6 | x6 | x6 | z2 [CA]4 | x6 | x6 | x6 | x6 | x6 |] %17
V:3
 F,>G, A,3 A, | D>[K:treble]=C B,2 D2 | C>A,[K:bass] A,3 G, | F,A, A,4 | F,>G, A,3 A, | %5
 D>=C B,2 D2 | C[K:bass]B, A,3 F, | G,A, F,4 | A,A, A,3 A, | A,A, A,2 D2 | A,^G, A,3 A, | %11
 ^G,G, A,4 | A,A, D2 A,2 | A,A, B,2 D2 | CB, A,2 F,2 | G,A, F,4- | F,4 z2 |] %17
V:4
 D,>D, D,3 D, | D,>D, G,,2 G,,2 | A,,>A,, A,,3 A,, | A,,A,, D,4 | D,>D, D,3 D, | D,>D, G,,2 G,,2 | %6
 G,,G,, A,,3 A,, | A,,A,, D,4 | A,,A,, A,,3 A,, | A,,A,, D,2 D,2 | C,E, z2 z D, | E,E, A,,4 | %12
 D,D, D,2 D,2 | C,D, G,,2 G,,2 | G,,G,, A,,2 A,,2 | A,,A,, D,4- | D,4 z2 |] %17

